gama.ui.shared/icons_svg/dark/gaml/_monitor.svg

<?xml version="1.0" encoding="UTF-8" standalone="no"?>
<!DOCTYPE svg PUBLIC "-//W3C//DTD SVG 1.1//EN" "http://www.w3.org/Graphics/SVG/1.1/DTD/svg11.dtd">
<svg xmlns:dc="http://purl.org/dc/elements/1.1/" xmlns:xl="http://www.w3.org/1999/xlink" version="1.1" xmlns="http://www.w3.org/2000/svg" viewBox="13.503031 -2834.0862 24 18" width="24" height="18">
  <defs/>
  <g id="SOURCES" stroke-dasharray="none" stroke="none" stroke-opacity="1" fill="none" fill-opacity="1">
    <title>SOURCES</title>
    <g id="SOURCES_New">
      <title>New</title>
      <g id="Group_10501">
        <g id="Graphic_10267"/>
        <g id="Group_10264">
          <title>desktop</title>
          <g id="Graphic_10265">
            <path d="M 20.25303 -2819.8362 L 21.75303 -2819.8362 L 21.75303 -2821.3362 L 20.25303 -2821.3362 Z M 19.50303 -2819.8362 L 19.50303 -2821.3362 L 15.378031 -2821.3362 C 14.343031 -2821.3362 13.503031 -2822.1762 13.503031 -2823.2112 L 13.503031 -2829.2112 C 13.503031 -2830.2462 14.343031 -2831.0862 15.378031 -2831.0862 L 26.62803 -2831.0862 C 27.66303 -2831.0862 28.50303 -2830.2462 28.50303 -2829.2112 L 28.50303 -2823.2112 C 28.50303 -2822.1762 27.66303 -2821.3362 26.62803 -2821.3362 L 22.50303 -2821.3362 L 22.50303 -2819.8362 L 23.62803 -2819.8362 C 23.83803 -2819.8362 24.00303 -2819.6712 24.00303 -2819.4612 C 24.00303 -2819.2512 23.83803 -2819.0862 23.62803 -2819.0862 L 18.378031 -2819.0862 C 18.168031 -2819.0862 18.003031 -2819.2512 18.003031 -2819.4612 C 18.003031 -2819.6712 18.168031 -2819.8362 18.378031 -2819.8362 Z M 15.378031 -2830.3362 C 14.755531 -2830.3362 14.253031 -2829.8337 14.253031 -2829.2112 L 14.253031 -2823.2112 C 14.253031 -2822.5887 14.755531 -2822.0862 15.378031 -2822.0862 L 26.62803 -2822.0862 C 27.25053 -2822.0862 27.75303 -2822.5887 27.75303 -2823.2112 L 27.75303 -2829.2112 C 27.75303 -2829.8337 27.25053 -2830.3362 26.62803 -2830.3362 Z" fill="#999"/>
          </g>
        </g>
      </g>
    </g>
  </g>
</svg>

<svg height="18" viewBox="13.503 -2834.086 24 18" width="24" xmlns="http://www.w3.org/2000/svg"><path d="m20.25303-2819.8362h1.5v-1.5h-1.5zm-.75 0v-1.5h-4.124999c-1.035 0-1.875-.84-1.875-1.875v-6c0-1.035.84-1.875 1.875-1.875h11.249999c1.035 0 1.875.84 1.875 1.875v6c0 1.035-.84 1.875-1.875 1.875h-4.125v1.5h1.125c.21 0 .375.165.375.375s-.165.375-.375.375h-5.249999c-.21 0-.375-.165-.375-.375s.165-.375.375-.375zm-4.124999-10.5c-.6225 0-1.125.5025-1.125 1.125v6c0 .6225.5025 1.125 1.125 1.125h11.249999c.6225 0 1.125-.5025 1.125-1.125v-6c0-.6225-.5025-1.125-1.125-1.125z" fill="#999"/></svg>
